symbols/web/dataset_linked/materialsymbolssharp/dataset_linked_grad200_20px.svg

<svg xmlns="http://www.w3.org/2000/svg" height="20" width="20"><path d="M1.958 17.208V1.125h16.084V9.25q-.334-.104-.677-.135-.344-.032-.698-.032h-.917V3.417H4.25v11.5h1.792q.104.625.312 1.187.208.563.542 1.104ZM4.25 15V3.417 15Zm1.042-1.125h.812q.229-1.271.813-2.187.583-.917 1.625-1.646h-3.25Zm0-5.583h3.833V4.458H5.292Zm6.375 10.291q-1.605 0-2.74-1.135-1.135-1.136-1.135-2.74 0-1.604 1.135-2.739 1.135-1.136 2.74-1.136h1.708v2.292h-1.708q-.667 0-1.125.458-.459.459-.459 1.125 0 .646.459 1.115.458.469 1.125.469h1.687v2.291Zm-.792-10.291h3.833V4.458h-3.833Zm.792 7.562v-2.292h5v2.292ZM15 18.583v-2.291h1.667q.666 0 1.125-.459.458-.458.458-1.125 0-.666-.458-1.125-.459-.458-1.125-.458h-1.709v-2.292h1.709q1.604 0 2.739 1.136 1.136 1.135 1.136 2.739 0 1.604-1.136 2.74-1.135 1.135-2.739 1.135Z"/></svg>

<svg xmlns="http://www.w3.org/2000/svg" height="20" width="20"><path d="M1.958 17.208V1.125H18.042V9.25Q17.708 9.146 17.365 9.115Q17.021 9.083 16.667 9.083H15.75V3.417H4.25V14.917H6.042Q6.146 15.542 6.354 16.104Q6.562 16.667 6.896 17.208ZM4.25 15Q4.25 15 4.25 15Q4.25 15 4.25 15Q4.25 14.958 4.25 14.948Q4.25 14.938 4.25 14.917V3.417V15ZM5.292 13.875H6.104Q6.333 12.604 6.917 11.688Q7.5 10.771 8.542 10.042H5.292ZM5.292 8.292H9.125V4.458H5.292ZM11.667 18.583Q10.062 18.583 8.927 17.448Q7.792 16.312 7.792 14.708Q7.792 13.104 8.927 11.969Q10.062 10.833 11.667 10.833H13.375V13.125H11.667Q11 13.125 10.542 13.583Q10.083 14.042 10.083 14.708Q10.083 15.354 10.542 15.823Q11 16.292 11.667 16.292H13.354V18.583ZM10.875 8.292H14.708V4.458H10.875ZM11.667 15.854V13.562H16.667V15.854ZM15 18.583V16.292H16.667Q17.333 16.292 17.792 15.833Q18.25 15.375 18.25 14.708Q18.25 14.042 17.792 13.583Q17.333 13.125 16.667 13.125H14.958V10.833H16.667Q18.271 10.833 19.406 11.969Q20.542 13.104 20.542 14.708Q20.542 16.312 19.406 17.448Q18.271 18.583 16.667 18.583Z"/></svg>
